X:1
T:Chief O'Neill's Favourite
R:hornpipe
M:4/4
L:1/8
K:D
de|:fefg af (3gfe|fdec dBAG|FD~D2 FGAB|(3=cBA d^c A2de|
|fefg af (3gfe|fdec dBAG|FDEF GBAG|1 FD~D2 D2de:|2 FD~D2 D2DE|]
|:=FEFG AGAB|~=c2cd cBAG|Ad~d2 fded|cAdc A2de|
|fefg af (3gfe|fdec dBAG|FDEF GBAG|1 FD~D2 D2DE:|2 FD~D2 D2de|]